X: 139
T: Missa Tandernaken / Credo
N: Derived from Rue1030c-Missa_Tandernaken-Credo.krn
C: Pierre de la Rue
%%abc-version 2.0
%%abcx-abcm2ps-target-version 5.9.1 (29 Sep 2008)
%%abc-creator hum2abc beta
%%abcx-conversion-date 2019/02/17 08:01:15
%%abc-edited-by Jesse Rodin
%%abc-edited-by Chris Gage 05-24-2013
%%abcx-initial-encoding-date 2013/08/04/
%%humdrum-veritas 2322921691
%%humdrum-veritas-data 3759925528
%%linebreak <none>
%%barnumbers 0
L: 1/4
M: 2/1
Q: 1/2=120
%%staves [1 2 3 4]
V: 1 clef=treble
V: 2 clef=treble-8
V: 3 clef=treble-8
V: 4 clef=bass
K: F
[V:1] A4A2A2 | 
[V:2] d4d2d2 | 
[V:3] z8 | 
[V:4] D,4D,2D,2 | 
[V:1] F2F2E3E | 
[V:2] A2B4A2 | 
[V:3] z8 | 
[V:4] D,2D,2C,4 | 
[V:1] D2D2F4 | 
[V:2] B2B2A2A2 | 
[V:3] d8 | 
[V:4] B,,2B,,2D,4 | 
[V:1] G4A2B2 | 
[V:2] B4A2d2- | 
[V:3] d4d4- | 
[V:4] G,4F,2B,,2 | 
[V:1] A2G4^F2 | 
[V:2] d2cBA4 | 
[V:3] d4d4 | 
[V:4] F,2G,2D,4 | 
[V:1] G4E2E2 | 
[V:2] z2c4c2 | 
[V:3] G8 | 
[V:4] z2C,4C,2 | 
[V:1] E2G2F2A2- | 
[V:2] c2c2A2d2- | 
[V:3] G4d4- | 
[V:4] C,2C,2D,4 | 
[V:1] A2B2c2A2 | 
[V:2] d2B2A2A2 | 
[V:3] d4c4 | 
[V:4] F,2G,2A,2F,2 | 
[V:1] B2G4^FE | 
[V:2] d2d2d2d2- | 
[V:3] B4A4- | 
[V:4] G,2G,2D,4 | 
[V:1] ^F4G4 | 
[V:2] d2d2d2B2- | 
[V:3] A4G4- | 
[V:4] D,2D,2G,,4- | 
[V:1] z8 | 
[V:2] Bcd2B2B2 | 
[V:3] G4G4 | 
[V:4] G,,8 | 
[V:1] z2A2A2F2- | 
[V:2] A4z4 | 
[V:3] F8 | 
[V:4] D,8 | 
[V:1] FGA2D4 | 
[V:2] z8 | 
[V:3] F4F4- | 
[V:4] z4z2D,2 | 
[V:1] z8 | 
[V:2] z4z2d2 | 
[V:3] F4F4 | 
[V:4] D,2B,,3C,D,2 | 
[V:1] z8 | 
[V:2] d2B3cd2 | 
[V:3] G8 | 
[V:4] G,,8 | 
[V:1] z4z2C2 | 
[V:2] A4z4 | 
[V:3] F4E4 | 
[V:4] D,4C,4 | 
[V:1] D2D2F2F2 | 
[V:2] z4z2D2 | 
[V:3] D8 | 
[V:4] B,,4B,,4 | 
[V:1] E2G2A2A2 | 
[V:2] E2E2F2F2 | 
[V:3] C8 | 
[V:4] C,4F,,4 | 
[V:1] G2E2F2F2 | 
[V:2] E2G2A2A2 | 
[V:3] C4C4- | 
[V:4] z2C,2F,,4 | 
[V:1] E4z4 | 
[V:2] G2E2F2F2 | 
[V:3] C4C4 | 
[V:4] C,4F,,4 | 
[V:1] z8 | 
[V:2] A2c4c2 | 
[V:3] F8 | 
[V:4] z2F,3G,A,2 | 
[V:1] z2c2c2c2 | 
[V:2] A2A2F4 | 
[V:3] F4A4- | 
[V:4] D,2F,3G,A,2 | 
[V:1] A2A2F3G | 
[V:2] z8 | 
[V:3] A4A4 | 
[V:4] D,2F,3G,A,2 | 
[V:1] A2F4ED | 
[V:2] z2c4c2 | 
[V:3] c8 | 
[V:4] F,8 | 
[V:1] C8 | 
[V:2] A2A2F4- | 
[V:3] c4A4- | 
[V:4] z4z2F,2 | 
[V:1] z8 | 
[V:2] F4z4 | 
[V:3] A4A4 | 
[V:4] F,2F,2D,2D,2 | 
[V:1] F4F2F2 | 
[V:2] F4F2F2 | 
[V:3] d8 | 
[V:4] B,,8 | 
[V:1] G2A3GFE | 
[V:2] E2F3EF2 | 
[V:3] c4A4 | 
[V:4] z8 | 
[V:1] D2G3FED | 
[V:2] G4G4 | 
[V:3] B8 | 
[V:4] G,,8 | 
[V:1] C4E2F2- | 
[V:2] E4z2D2 | 
[V:3] A8 | 
[V:4] A,,4C,2D,2- | 
[V:1] F2E2F2E2 | 
[V:2] d2c2d2c2 | 
[V:3] A4A4- | 
[V:4] D,2A,,2D,2A,,2 | 
[V:1] F2F2C4 | 
[V:2] d2D2E4 | 
[V:3] A4A4 | 
[V:4] D,2D,2A,,4 | 
[V:1] D2D2D2D2 | 
[V:2] D8 | 
[V:3] F8 | 
[V:4] B,,8 | 
[V:1] C2C2A,4 | 
[V:2] A4z2c2 | 
[V:3] F4F4- | 
[V:4] F,,8- | 
[V:1] z8 | 
[V:2] c2c2d2c2 | 
[V:3] F4F4 | 
[V:4] F,,8 | 
[V:1] z2A,2A,2A,2 | 
[V:2] F2F2F4 | 
[V:3] c8 | 
[V:4] z8 | 
[V:1] G,2G4F2- | 
[V:2] G2G2c4 | 
[V:3] B4A4 | 
[V:4] z4F,,4 | 
[V:1] F2EDE4 | 
[V:2] c4c4 | 
[V:3] G8 | 
[V:4] C,8 | 
[V:1] F4z4 | 
[V:2] A2A2B2B2 | 
[V:3] F8 | 
[V:4] D,2D,2B,,2B,,2 | 
[V:1] z2A2B2B2 | 
[V:2] c2c2B2B2 | 
[V:3] F4G4- | 
[V:4] A,,2A,,2G,,2G,,2 | 
[V:1] G2G3AB2 | 
[V:2] c2c2d2d2 | 
[V:3] G4G4 | 
[V:4] C,2C,2B,,2B,,2 | 
[V:1] c2A4GF | 
[V:2] c8 | 
[V:3] A8 | 
[V:4] A,,8 | 
[V:1] E4F4 | 
[V:2] z2B2A3B | 
[V:3] G4F4 | 
[V:4] z8 | 
[V:1] z8 | 
[V:2] cAd4^c2 | 
[V:3] E8 | 
[V:4] z8 | 
[V:1] z4A4 | 
[V:2] d4f4 | 
[V:3] D8 | 
[V:4] z4D,4 | 
[V:1] B8 | 
[V:2] f4f4 | 
[V:3] d8 | 
[V:4] B,,4B,,4 | 
[V:1] A4A4- | 
[V:2] f4f4 | 
[V:3] c4A4 | 
[V:4] F,8 | 
[V:1] A4G4 | 
[V:2] d8 | 
[V:3] B8 | 
[V:4] G,8 | 
[V:1] A8- | 
[V:2] z2d2d2d2 | 
[V:3] A8- | 
[V:4] D,4z2D,2 | 
[V:1] A8 | 
[V:2] f3ed2cB | 
[V:3] A8- | 
[V:4] D,2D,2F,3E, | 
[V:1] z2A2A2A2 | 
[V:2] A2A2c4 | 
[V:3] A8- | 
[V:4] D,2C,B,,A,,4- | 
[V:1] c3=BA2GF | 
[V:2] c8 | 
[V:3] A8- | 
[V:4] A,,4A,,4 | 
[V:1] E2E2F2F2 | 
[V:2] z2A2F2D2 | 
[V:3] A8- | 
[V:4] z2A,,2D,2D,2 | 
[V:1] E2D2F2F2 | 
[V:2] E2F2F2D2 | 
[V:3] A8- | 
[V:4] C,2D,2D,2D,2 | 
[V:1] E2D2F2F2 | 
[V:2] E2F2F2D2 | 
[V:3] A8- | 
[V:4] A,,2D,2D,2D,2 | 
[V:1] E4D4 | 
[V:2] E4F4 | 
[V:3] A8- | 
[V:4] C,4D,4 | 
[V:1] E8- | 
[V:2] E6C2 | 
[V:3] A8- | 
[V:4] A,,8- | 
[V:1] E8 ||  
[V:2] C8 ||  
[V:3] A8 ||  
[V:4] A,,8 ||  
[V:1]  [K:F] [K:clef=treble][M:2/1]E2E2F2E2 | 
[V:2]  [K:F] [K:clef=treble-8][M:2/1]z8 | 
[V:3]  [K:F] [K:clef=treble-8][M:2/1]A8 | 
[V:4]  [K:F] [K:clef=bass][M:2/1]z8 | 
[V:1] D2G2G2F2- | 
[V:2] z8 | 
[V:3] B4A4 | 
[V:4] z8 | 
[V:1] F2EDE4 | 
[V:2] z8 | 
[V:3] G8 | 
[V:4] z8 | 
[V:1] F8 | 
[V:2] z2c2d2f2 | 
[V:3] F4z2A2 | 
[V:4] z2F,2F,2F,2 | 
[V:1] z8 | 
[V:2] e2d4^c2 | 
[V:3] B2A2A2G2 | 
[V:4] G,2D,2E,4 | 
[V:1] z2A2A2A2 | 
[V:2] d8 | 
[V:3] A4z2d2 | 
[V:4] D,8 | 
[V:1] B2A2G2A2- | 
[V:2] z8 | 
[V:3] d2d2e2d2 | 
[V:4] z8 | 
[V:1] A2GFE4 | 
[V:2] z8 | 
[V:3] c2d4^c2 | 
[V:4] z8 | 
[V:1] D8 | 
[V:2] z2F2G2B2 | 
[V:3] d4z4 | 
[V:4] z2B,,2B,,2B,,2 | 
[V:1] z8 | 
[V:2] A2G2G2^F2 | 
[V:3] z8 | 
[V:4] C,2G,,2A,,2A,,2 | 
[V:1] D4D2D2 | 
[V:2] G2B2G2G2 | 
[V:3] z2G2B2B2 | 
[V:4] G,,2G,,2G,,2G,,2 | 
[V:1] D2D2D2D2 | 
[V:2] F2B2G2G2 | 
[V:3] A2G2B2B2 | 
[V:4] D,2G,,2G,,2G,,2 | 
[V:1] D2D2F2F2 | 
[V:2] F8 | 
[V:3] A2A2A2A2 | 
[V:4] D,8 | 
[V:1] E2D2F2F2 | 
[V:2] z8 | 
[V:3] A2A2A2A2 | 
[V:4] C,2D,4C,B,, | 
[V:1] C2E4A2- | 
[V:2] z8 | 
[V:3] A2A2c2d2 | 
[V:4] A,,4z4 | 
[V:1] A2G2G2^F2 | 
[V:2] z2c2c2c2 | 
[V:3] cBAGA4 | 
[V:4] z8 | 
[V:1] G8 | 
[V:2] d2e2d2c2- | 
[V:3] G8 | 
[V:4] z2C,2B,,2C,2 | 
[V:1] z8 | 
[V:2] c2=B2c4- | 
[V:3] z8 | 
[V:4] D,4C,4 | 
[V:1] z2E3EE2 | 
[V:2] c4c4 | 
[V:3] G4G3G | 
[V:4] z2C,2C,2C,2 | 
[V:1] G2G2F2F2 | 
[V:2] c2d4d2 | 
[V:3] G2B4A2 | 
[V:4] E,2G,2D,2D,2 | 
[V:1] A2A2G4 | 
[V:2] c4z4 | 
[V:3] A2c2c2B2 | 
[V:4] F,2F,2E,2G,2 | 
[V:1] z8 | 
[V:2] z8 | 
[V:3] A2B2A2B2- | 
[V:4] F,2D,2C,2D,2- | 
[V:1] z4A4 | 
[V:2] z8 | 
[V:3] B2G4F2 | 
[V:4] D,2C,B,,A,,4 | 
[V:1] B2A4F2 | 
[V:2] z4d4 | 
[V:3] G2F2D4 | 
[V:4] z8 | 
[V:1] G2F2D2G2 | 
[V:2] e2d4B2 | 
[V:3] z8 | 
[V:4] z8 | 
[V:1] A2B4A2- | 
[V:2] c2B2G2A2 | 
[V:3] z8 | 
[V:4] z8 | 
[V:1] A2G2A4- | 
[V:2] B4A4 | 
[V:3] z8 | 
[V:4] z4z2A,,2 | 
[V:1] A4A4 | 
[V:2] A8 | 
[V:3] z2A2A2A2 | 
[V:4] A,,2A,,2D,4 | 
[V:1] F8 | 
[V:2] z8 | 
[V:3] d4z2A2- | 
[V:4] z2D,2D,2D,2 | 
[V:1] F4G4- | 
[V:2] z8 | 
[V:3] A2A2G2c2- | 
[V:4] F,4E,4 | 
[V:1] G4G4 | 
[V:2] z8 | 
[V:3] c2BAG4 | 
[V:4] C,8 | 
[V:1] A6G2- | 
[V:2] z2f2f2e2 | 
[V:3] F4z4 | 
[V:4] z8 | 
[V:1] G2F2E4 | 
[V:2] e2d4^c2 | 
[V:3] z8 | 
[V:4] z8 | 
[V:1] D4C2C2 | 
[V:2] d4A4 | 
[V:3] D4E4 | 
[V:4] z4A,,2A,,2 | 
[V:1] C2C2C2D2- | 
[V:2] A2A2A2B2- | 
[V:3] E2E2E2G2 | 
[V:4] A,,2A,,2A,,2G,,2- | 
[V:1] DCA,2B,4 | 
[V:2] B2A2G2d2 | 
[V:3] D4G4 | 
[V:4] G,,2F,,2G,,4 | 
[V:1] A,4z2A,2 | 
[V:2] c2A2B2c2 | 
[V:3] E8 | 
[V:4] A,,4z2A,,2 | 
[V:1] B,2C2D2A,A, | 
[V:2] d2AAB2c2 | 
[V:3] z8 | 
[V:4] G,,2A,,2G,,2A,,2 | 
[V:1] B,2C2D4 | 
[V:2] d2zef2f2 | 
[V:3] z8 | 
[V:4] G,,2C,2B,,2D,2 | 
[V:1] z2E2F2F2 | 
[V:2] e2c2d4 | 
[V:3] A4A2A2 | 
[V:4] z2A,,2D,2D,2 | 
[V:1] E2C2D4 | 
[V:2] c2e2f4 | 
[V:3] A2A2A2A2- | 
[V:4] A,,2A,,2D,4 | 
[V:1] C2E2F4 | 
[V:2] e2c2d4 | 
[V:3] A2A2A4 | 
[V:4] A,,2A,,2D,4 | 
[V:1] E4z4 | 
[V:2] c4z4 | 
[V:3] A8 | 
[V:4] A,,4z2D,2 | 
[V:1] z8 | 
[V:2] z8 | 
[V:3] z2A2A2A2 | 
[V:4] D,2D,2C,2D,2 | 
[V:1] z8 | 
[V:2] z8 | 
[V:3] G2A2B2c2 | 
[V:4] E,2F,2D,2C,2 | 
[V:1] z8 | 
[V:2] c4c2c2 | 
[V:3] A2G2z2E2 | 
[V:4] z2C,2C,2C,2 | 
[V:1] z8 | 
[V:2] c2c2c2B2- | 
[V:3] E2E2E2F2 | 
[V:4] A,,2A,,2A,,2D,2- | 
[V:1] z4D4 | 
[V:2] B2A4G2 | 
[V:3] F2E2E2D2 | 
[V:4] D,2A,,2B,,4 | 
[V:1] C4C2E2- | 
[V:2] A8 | 
[V:3] E8 | 
[V:4] A,,8 | 
[V:1] E2F2E2C2 | 
[V:2] z2A2A2A2 | 
[V:3] z8 | 
[V:4] z8 | 
[V:1] D2F2E2C2 | 
[V:2] B2d2c2A2 | 
[V:3] z8 | 
[V:4] z8 | 
[V:1] DCB,A,B,4 | 
[V:2] B2A4G2 | 
[V:3] z8 | 
[V:4] z8 | 
[V:1] A,8- | 
[V:2] A4z2c2 | 
[V:3] z2C2D2F2- | 
[V:4] A,,4D,2A,,2 | 
[V:1] A,8- | 
[V:2] d2f2e2c2 | 
[V:3] F2D2E2E2 | 
[V:4] D,2D,2A,,4 | 
[V:1] A,8- | 
[V:2] d2f2e2c2 | 
[V:3] F2D2E4 | 
[V:4] z2D,2C,2A,,2 | 
[V:1] A,8- | 
[V:2] d8 | 
[V:3] F8 | 
[V:4] D,4D,4 | 
[V:1] A,8- | 
[V:2] !fermata!^c8 | 
[V:3] !fermata!E8 | 
[V:4] !fermata!A,,8 | 
[V:1] A,8 |]  
[V:2] d8 |]  
[V:3] D8 |]  
[V:4] D,8 |]  



